X:1
T:Title
%%score ( 1 2 ) ( 3 4 )
L:1/8
Q:1/4=100
M:4/4
K:C
V:1 treble nm="Midi_20"
V:2 treble 
V:3 bass nm="Midi_20"
V:4 bass 
V:1
"^Armageddon (65. 65. Ter.)""^John Goss\n(1800-80)""^Who is on the Lord's side?" G2 G2 e2 d2 | %1
 c4 G4 | A2 A2 c2 c2 | G8 || ^G2 G2 A2 c2 | e4 d4 | c2 A2 G2 ^F2 | G8 || G2 G2 A2 E2 | G4 =F4 | %10
 B2 G2 c2 E2 | D8 || E2 C2 F2 D2 | G2 E2 A2 c2 | E4 D4 | C8 || c2 G2 E2 C2 | A4 G4 | C2 D2 E2 F2 | %19
 G8 || c3 c c2 c2 | e4 c4 | G2 c2 d3 c | c8 |] %24
V:2
 E2 E2 G2 G2 | G4 E4 | F2 F2 F2 F2 | E8 || E2 E2 E2 E2 | E4 ^G4 | A2 E2 D2 D2 | D8 || %8
 E2 E2 ^C2 C2 | E4 D4 | F2 F2 E2 C2 | B,8 || C2 C2 B,2 B,2 | C2 C2 C2 C2 | C4 B,4 | C8 || %16
 C2 G2 E2 C2 | F4 E4 | C2 D2 E2 F2 | G8 || E3 E A2 A2 | G4 G4 | E2 E2 F3 E | E8 |] %24
V:3
 C2 C2 C2 B,2 | C4 C4 | C2 C2 C2 C2 | C8 || D2 D2 C2 C2 | B,4 B,4 | C2 C2 B,2 A,2 | B,8 || %8
 G,2 G,2 G,2 G,2 | (G,2 A,2) (B,2 C2) | D2 D2 C2 C2 | G,8 || G,2 G,2 G,2 G,2 | G,2 G,2 A,2 F,2 | %14
 G,6 F,2 | E,8 || %16
"^1. Who is on the Lord's side? Who will serve the King?\nWho will be his helper Other lives to bring?\nWho will leave the world's side? Who will face the foe?\nWho is on the Lord's side? Who will for Him go?\nBy Thy call of mercy, By Thy grace divine,\nWe are on the Lord's side, Saviour, we are Thine. \n\n2. Jesus, Thou hast bought us Not with gold or gem,\nBut with Thine own life-blood For Thy diadem.\nWith Thy blessing filling Each who comes to Thee,\nThou hast made us willing, Thou hast made us free.\nBy Thy grand redemption, By Thy grace divine,\nWe are on the Lord's side, Saviour, we are Thine." C2 G,2 E,2 C,2 | %17
 C4 C4 | C,2 D,2 E,2 F,2 | G,8 || %20
"^3. Fierce may be the conflict, Strong may be the foe,\nBut the King's own army None can overthrow:\nRound His standard ranging, Victory is secure:\nFor His truth unchanging Makes the triumph sure.\nJoyfully enlisting, By Thy grace divine,\nWe are on the Lord's side, Saviour, we are Thine. \n\n4. Chosen to be soldiers In an alien land,\nChosen, called, and faithful For our Captain's band,\nIn the service royal Let us not grow cold,\nLet us be right loyal, Noble, true, and bold.\nMaster, Thou wilt keep us By Thy grace divine,\nAlways on the Lord's side, Saviour, always Thine." C3 C C2 C2 | %21
 C4 C4 | C2 C2 B,3 C | C8 |] %24
V:4
 C,2 C,2 C2 G,2 | E,4 C,4 | F,2 F,2 A,2 A,2 | C8 || B,2 B,2 A,2 A,2 | ^G,4 E,4 | A,2 C,2 D,2 D,2 | %7
 G,,8 || G,2 G,2 G,2 G,2 | G,4 G,4 | G,2 G,2 G,2 G,2 | (G,2 F,2 E,2 D,2) || C,2 E,2 D,2 F,2 | %13
 E,2 G,2 F,2 A,,2 | G,,4 G,,4 | C,8 || C2 G,2 E,2 C,2 | F,4 C,4 | C,2 D,2 E,2 F,2 | G,8 || %20
 A,3 A, F,2 F,2 | C4 (E,2 F,2) | G,2 G,2 G,,3 C, | C,8 |] %24

